gtk-icons/Papirus-GTK/22x22/actions/format-currency.svg

<?xml version="1.0" encoding="UTF-8" standalone="no"?>
<!-- Created with Inkscape (http://www.inkscape.org/) -->

<svg
   xmlns:dc="http://purl.org/dc/elements/1.1/"
   xmlns:cc="http://creativecommons.org/ns#"
   xmlns:rdf="http://www.w3.org/1999/02/22-rdf-syntax-ns#"
   xmlns:svg="http://www.w3.org/2000/svg"
   xmlns="http://www.w3.org/2000/svg"
   xmlns:sodipodi="http://sodipodi.sourceforge.net/DTD/sodipodi-0.dtd"
   xmlns:inkscape="http://www.inkscape.org/namespaces/inkscape"
   width="22"
   height="22"
   id="svg3049"
   version="1.1"
   inkscape:version="0.91 r13725"
   sodipodi:docname="format-currency.svg"
   inkscape:export-filename="/home/uri/.kde/share/icons/NITRUX-KDE/16x16/actions/view-right-new.png"
   inkscape:export-xdpi="30"
   inkscape:export-ydpi="30">
  <defs
     id="defs3051">
    <style
       type="text/css"
       id="current-color-scheme">
      .ColorScheme-Text {
        color:#4d4d4d;
      }
      .ColorScheme-Background {
        color:#eff0f1;
      }
      .ColorScheme-Highlight {
        color:#3daee9;
      }
      .ColorScheme-ViewText {
        color:#31363b;
      }
      .ColorScheme-ViewBackground {
        color:#fcfcfc;
      }
      .ColorScheme-ViewHover {
        color:#93cee9;
      }
      .ColorScheme-ViewFocus{
        color:#3daee9;
      }
      .ColorScheme-ButtonText {
        color:#31363b;
      }
      .ColorScheme-ButtonBackground {
        color:#eff0f1;
      }
      .ColorScheme-ButtonHover {
        color:#93cee9;
      }
      .ColorScheme-ButtonFocus{
        color:#3daee9;
      }
      </style>
    <style
       id="current-color-scheme-7"
       type="text/css">
      .ColorScheme-Text {
        color:#4d4d4d;
      }
      .ColorScheme-Background {
        color:#eff0f1;
      }
      .ColorScheme-Highlight {
        color:#3daee9;
      }
      .ColorScheme-ViewText {
        color:#31363b;
      }
      .ColorScheme-ViewBackground {
        color:#fcfcfc;
      }
      .ColorScheme-ViewHover {
        color:#93cee9;
      }
      .ColorScheme-ViewFocus{
        color:#3daee9;
      }
      .ColorScheme-ButtonText {
        color:#31363b;
      }
      .ColorScheme-ButtonBackground {
        color:#eff0f1;
      }
      .ColorScheme-ButtonHover {
        color:#93cee9;
      }
      .ColorScheme-ButtonFocus{
        color:#3daee9;
      }
      </style>
  </defs>
  <sodipodi:namedview
     id="base"
     pagecolor="#ffffff"
     bordercolor="#666666"
     borderopacity="1.0"
     inkscape:pageopacity="0.0"
     inkscape:pageshadow="2"
     inkscape:zoom="23.94"
     inkscape:cx="10.762221"
     inkscape:cy="8.6902664"
     inkscape:document-units="px"
     inkscape:current-layer="layer1"
     showgrid="false"
     fit-margin-top="0"
     fit-margin-left="0"
     fit-margin-right="0"
     fit-margin-bottom="0"
     inkscape:window-width="1600"
     inkscape:window-height="847"
     inkscape:window-x="0"
     inkscape:window-y="30"
     inkscape:window-maximized="1"
     inkscape:showpageshadow="false"
     borderlayer="true"
     inkscape:object-nodes="true"
     showguides="false">
    <sodipodi:guide
       position="2.0000044,20.00003"
       orientation="18,0"
       id="guide4067" />
    <sodipodi:guide
       position="2.0000044,2.0000296"
       orientation="0,18"
       id="guide4069" />
    <sodipodi:guide
       position="20.000004,2.0000296"
       orientation="-18,0"
       id="guide4071" />
    <sodipodi:guide
       position="20.000004,20.00003"
       orientation="0,-18"
       id="guide4073" />
    <sodipodi:guide
       position="3.0000044,19.00003"
       orientation="16,0"
       id="guide4077" />
    <sodipodi:guide
       position="3.0000044,3.0000296"
       orientation="0,16"
       id="guide4079" />
    <sodipodi:guide
       position="19.000004,3.0000296"
       orientation="-16,0"
       id="guide4081" />
    <sodipodi:guide
       position="19.000004,19.00003"
       orientation="0,-16"
       id="guide4083" />
    <inkscape:grid
       type="xygrid"
       id="grid4085" />
    <sodipodi:guide
       position="11.000004,18.999969"
       orientation="0,-6"
       id="guide4175" />
    <sodipodi:guide
       position="9.9999739,18.999969"
       orientation="0,-4.9999695"
       id="guide4201" />
  </sodipodi:namedview>
  <metadata
     id="metadata3054">
    <rdf:RDF>
      <cc:Work
         rdf:about="">
        <dc:format>image/svg+xml</dc:format>
        <dc:type
           rdf:resource="http://purl.org/dc/dcmitype/StillImage" />
        <dc:title></dc:title>
      </cc:Work>
    </rdf:RDF>
  </metadata>
  <g
     inkscape:label="Capa 1"
     inkscape:groupmode="layer"
     id="layer1"
     transform="translate(-421.71429,-525.79074)">
    <g
       transform="translate(420.71429,-504.57147)"
       id="layer1-5"
       inkscape:label="Capa 1"
       style="fill:#000000;fill-opacity:1;opacity:0.5">
      <path
         style="font-style:normal;font-variant:normal;font-weight:normal;font-stretch:normal;font-size:13.49886227px;line-height:125%;font-family:Oxygen;-inkscape-font-specification:Oxygen;letter-spacing:0px;word-spacing:0px;fill:#000000;fill-opacity:1;stroke:none"
         d="M 9 3 L 9 4.1308594 C 8.0228267 4.272742 7.1906877 4.5299378 6.5371094 4.9316406 C 5.5265626 5.5465406 5.0214834 6.4897188 5.0214844 7.7617188 C 5.0169288 9.9570109 6.5789587 10.68039 9 11.345703 L 9 16.335938 C 7.8272813 16.236927 6.7551089 16.016504 5.6230469 15.533203 L 5 16.888672 C 5.5645099 17.189972 6.3272997 17.450828 7.2890625 17.673828 C 7.833341 17.796143 8.4002819 17.874405 9 17.927734 L 9 19 L 10 19 L 10 17.976562 C 10.170103 17.981099 10.31439 18 10.494141 18 C 10.657654 17.998701 10.830233 17.984699 11 17.976562 L 11 19 L 12 19 L 12 17.880859 C 13.996749 17.596007 15.979968 16.678603 15.958984 14.193359 C 15.889007 12.364266 14.755864 11.685849 12 10.716797 L 12 5.7636719 C 12.903263 5.8844157 14.002058 6.135949 15.224609 6.7460938 L 16 5.203125 C 15.449416 4.907625 14.16891 4.4367187 13.353516 4.2617188 C 12.920001 4.1691054 12.466997 4.1061138 12 4.0625 L 12 3 L 11 3 L 11 4.0136719 C 10.907791 4.0119134 10.82191 4 10.728516 4 C 10.471779 4 10.240718 4.0203437 10 4.0332031 L 10 3 L 9 3 z M 10.4375 5.6484375 C 10.588524 5.6492656 10.799835 5.6578869 11 5.6660156 L 11 10.367188 C 10.842551 10.314477 10.74464 10.274025 10.578125 10.21875 C 10.399423 10.174768 10.193203 10.110623 10 10.058594 L 10 5.6621094 C 10.145876 5.6557391 10.291583 5.648453 10.4375 5.6484375 z M 9 5.7597656 L 9 9.7558594 C 7.7730055 9.3214857 6.6429588 8.6646591 6.6757812 7.5664062 C 6.6162325 6.525104 7.6802316 5.9756239 9 5.7597656 z M 10 11.613281 C 10.183874 11.660073 10.329816 11.705387 10.521484 11.753906 C 10.682494 11.799725 10.838882 11.851255 11 11.898438 L 11 16.390625 C 10.850535 16.393712 10.688612 16.409414 10.548828 16.408203 C 10.357351 16.406423 10.184158 16.394213 10 16.388672 L 10 11.613281 z M 12 12.210938 C 13.281472 12.659476 14.319699 13.246286 14.296875 14.275391 C 14.257992 15.671085 13.165263 16.158285 12 16.324219 L 12 12.210938 z "
         transform="translate(1,1030.3622)"
         id="path3775" />
    </g>
  </g>
</svg>

<?xml version="1.0" encoding="UTF-8" standalone="no"?>
<!-- Created with Inkscape (http://www.inkscape.org/) -->
<svg id="svg3049" xmlns:rdf="http://www.w3.org/1999/02/22-rdf-syntax-ns#" xmlns="http://www.w3.org/2000/svg" height="22" width="22" version="1.1" xmlns:cc="http://creativecommons.org/ns#" xmlns:dc="http://purl.org/dc/elements/1.1/">
 <defs id="defs3051">
  <style id="current-color-scheme" type="text/css">.ColorScheme-Text {
        color:#4d4d4d;
      }
      .ColorScheme-Background {
        color:#eff0f1;
      }
      .ColorScheme-Highlight {
        color:#3daee9;
      }
      .ColorScheme-ViewText {
        color:#31363b;
      }
      .ColorScheme-ViewBackground {
        color:#fcfcfc;
      }
      .ColorScheme-ViewHover {
        color:#93cee9;
      }
      .ColorScheme-ViewFocus{
        color:#3daee9;
      }
      .ColorScheme-ButtonText {
        color:#31363b;
      }
      .ColorScheme-ButtonBackground {
        color:#eff0f1;
      }
      .ColorScheme-ButtonHover {
        color:#93cee9;
      }
      .ColorScheme-ButtonFocus{
        color:#3daee9;
      }</style>
  <style id="current-color-scheme-7" type="text/css">.ColorScheme-Text {
        color:#4d4d4d;
      }
      .ColorScheme-Background {
        color:#eff0f1;
      }
      .ColorScheme-Highlight {
        color:#3daee9;
      }
      .ColorScheme-ViewText {
        color:#31363b;
      }
      .ColorScheme-ViewBackground {
        color:#fcfcfc;
      }
      .ColorScheme-ViewHover {
        color:#93cee9;
      }
      .ColorScheme-ViewFocus{
        color:#3daee9;
      }
      .ColorScheme-ButtonText {
        color:#31363b;
      }
      .ColorScheme-ButtonBackground {
        color:#eff0f1;
      }
      .ColorScheme-ButtonHover {
        color:#93cee9;
      }
      .ColorScheme-ButtonFocus{
        color:#3daee9;
      }</style>
 </defs>
 <metadata id="metadata3054">
  <rdf:RDF>
   <cc:Work rdf:about="">
    <dc:format>image/svg+xml</dc:format>
    <dc:type rdf:resource="http://purl.org/dc/dcmitype/StillImage"/>
    <dc:title/>
   </cc:Work>
  </rdf:RDF>
 </metadata>
 <g id="layer1" transform="translate(-421.71 -525.79)">
  <g id="layer1-5" opacity=".5" transform="translate(420.71 -504.57)">
   <path id="path3775" d="m9 3v1.1309c-0.9772 0.1418-1.8093 0.399-2.4629 0.8007-1.0105 0.6149-1.5156 1.5581-1.5156 2.8301-0.0046 2.1953 1.5575 2.9183 3.9785 3.5843v4.99c-1.1727-0.099-2.2449-0.319-3.377-0.803l-0.623 1.356c0.5645 0.301 1.3273 0.562 2.2891 0.785 0.5442 0.122 1.1112 0.2 1.7109 0.254v1.072h1v-1.023c0.17 0.004 0.314 0.023 0.494 0.023 0.164-0.001 0.336-0.015 0.506-0.023v1.023h1v-1.119c1.997-0.285 3.98-1.202 3.959-3.688-0.07-1.829-1.203-2.507-3.959-3.476v-4.9533c0.903 0.1207 2.002 0.3722 3.225 0.9824l0.775-1.543c-0.551-0.2955-1.831-0.7664-2.646-0.9414-0.434-0.0926-0.887-0.1556-1.354-0.1992v-1.0625h-1v1.0137c-0.092-0.0018-0.178-0.0137-0.271-0.0137-0.257 0-0.488 0.0203-0.729 0.0332v-1.0332h-1zm1.438 2.6484c0.151 0.0009 0.362 0.0095 0.562 0.0176v4.701c-0.157-0.053-0.255-0.093-0.422-0.148-0.179-0.044-0.385-0.108-0.578-0.16v-4.3969c0.146-0.0064 0.292-0.0136 0.438-0.0137zm-1.438 0.1114v3.9961c-1.227-0.4344-2.357-1.0912-2.3242-2.1895-0.0596-1.0413 1.0044-1.5908 2.3242-1.8066zm1 5.8532c0.184 0.047 0.33 0.092 0.521 0.141 0.161 0.046 0.318 0.097 0.479 0.144v4.493c-0.149 0.003-0.311 0.018-0.451 0.017-0.192-0.002-0.365-0.014-0.549-0.019v-4.776zm2 0.598c1.281 0.448 2.32 1.035 2.297 2.064-0.039 1.396-1.132 1.883-2.297 2.049v-4.113z" transform="translate(1 1030.4)"/>
  </g>
 </g>
</svg>
